public/logos/J8.svg

<?xml version="1.0" encoding="UTF-8"?>
<svg xmlns="http://www.w3.org/2000/svg" xmlns:xlink="http://www.w3.org/1999/xlink" width="176pt" height="45.5pt" viewBox="0 0 176 45.5" version="1.1">
<defs>
<clipPath id="clip1">
  <path d="M 0 0 L 46 0 L 46 45.5 L 0 45.5 Z M 0 0 "/>
</clipPath>
</defs>
<g id="surface1">
<path style=" stroke:none;fill-rule:nonzero;fill:rgb(65.385437%,50.515747%,11.717224%);fill-opacity:1;" d="M 54.824219 12.945312 L 65.308594 12.945312 C 69.269531 12.945312 71.613281 13.691406 71.613281 18.050781 C 71.613281 20.578125 71.105469 22.230469 68.472656 22.65625 L 68.472656 22.867188 C 71.425781 23.054688 71.933594 24.835938 71.933594 27.335938 C 71.933594 32.230469 69.644531 32.898438 65.414062 32.898438 L 54.824219 32.898438 Z M 60.148438 20.925781 L 63.976562 20.925781 C 65.839844 20.925781 66.289062 20.605469 66.289062 19.011719 C 66.289062 17.8125 66.105469 17.359375 64.617188 17.308594 L 60.148438 17.308594 Z M 60.148438 28.535156 L 64.164062 28.535156 C 65.894531 28.535156 66.609375 28.136719 66.609375 26.511719 C 66.609375 24.863281 66 24.625 64.269531 24.625 L 60.148438 24.625 L 60.148438 28.535156 "/>
<path style=" stroke:none;fill-rule:nonzero;fill:rgb(65.385437%,50.515747%,11.717224%);fill-opacity:1;" d="M 79.21875 20.953125 L 87.730469 20.953125 L 87.730469 24.652344 L 79.21875 24.652344 L 79.21875 28.535156 L 88.476562 28.535156 L 88.476562 32.898438 L 73.898438 32.898438 L 73.898438 12.945312 L 88.289062 12.945312 L 88.289062 17.308594 L 79.21875 17.308594 L 79.21875 20.953125 "/>
<path style=" stroke:none;fill-rule:nonzero;fill:rgb(65.385437%,50.515747%,11.717224%);fill-opacity:1;" d="M 100.253906 22.972656 C 102.542969 22.972656 102.460938 22.121094 102.460938 19.863281 C 102.460938 18.078125 102.011719 17.574219 100.253906 17.574219 L 96.132812 17.574219 L 96.132812 22.972656 Z M 90.808594 12.945312 L 101.078125 12.945312 C 105.683594 13.023438 107.941406 14.007812 107.941406 18.984375 C 107.941406 22.308594 107.941406 24.25 104.164062 25.128906 L 104.164062 25.339844 C 106.347656 25.421875 107.757812 26.617188 107.757812 28.878906 L 107.757812 32.898438 L 102.4375 32.898438 L 102.4375 30.105469 C 102.488281 28.613281 101.851562 27.601562 100.253906 27.601562 L 96.132812 27.601562 L 96.132812 32.898438 L 90.808594 32.898438 L 90.808594 12.945312 "/>
<path style=" stroke:none;fill-rule:nonzero;fill:rgb(65.385437%,50.515747%,11.717224%);fill-opacity:1;" d="M 123.476562 12.945312 L 123.476562 26.75 C 123.476562 32.097656 121.882812 33.058594 116.292969 33.058594 C 110.761719 33.058594 109.617188 31.753906 109.617188 26.191406 L 109.617188 24.542969 L 114.671875 24.542969 L 114.671875 26.191406 C 114.671875 27.84375 114.855469 28.429688 116.292969 28.429688 C 117.941406 28.429688 118.15625 28.003906 118.15625 26.75 L 118.15625 12.945312 L 123.476562 12.945312 "/>
<path style=" stroke:none;fill-rule:nonzero;fill:rgb(65.385437%,50.515747%,11.717224%);fill-opacity:1;" d="M 130.71875 29.464844 L 129.730469 32.898438 L 124.199219 32.898438 L 130.1875 12.945312 L 138.273438 12.945312 L 144.339844 32.898438 L 138.910156 32.898438 L 137.875 29.464844 Z M 134.335938 16.933594 L 134.28125 16.933594 L 131.859375 25.582031 L 136.808594 25.582031 L 134.335938 16.933594 "/>
<path style=" stroke:none;fill-rule:nonzero;fill:rgb(65.385437%,50.515747%,11.717224%);fill-opacity:1;" d="M 152.65625 25.902344 L 152.65625 32.898438 L 147.335938 32.898438 L 147.335938 25.902344 L 140.257812 12.945312 L 146.351562 12.945312 L 149.914062 20.632812 L 150.101562 20.632812 L 153.773438 12.945312 L 159.945312 12.945312 L 152.65625 25.902344 "/>
<path style=" stroke:none;fill-rule:nonzero;fill:rgb(65.385437%,50.515747%,11.717224%);fill-opacity:1;" d="M 162.378906 29.464844 L 161.394531 32.898438 L 155.859375 32.898438 L 161.847656 12.945312 L 169.933594 12.945312 L 176 32.898438 L 170.574219 32.898438 L 169.535156 29.464844 Z M 165.996094 16.933594 L 165.941406 16.933594 L 163.523438 25.582031 L 168.472656 25.582031 L 165.996094 16.933594 "/>
<path style=" stroke:none;fill-rule:nonzero;fill:rgb(16.63208%,34.764099%,68.026733%);fill-opacity:1;" d="M 33.957031 33.890625 C 33.949219 35.296875 33.957031 36.648438 33.957031 37.671875 C 33.957031 43.730469 26.484375 45.402344 22.882812 42.320312 C 18.695312 45.632812 11.792969 43.765625 11.792969 37.902344 C 11.792969 37.902344 11.800781 36.308594 11.792969 33.804688 C 9.285156 33.804688 7.59375 33.835938 7.59375 33.835938 C 1.730469 33.835938 -0.136719 26.976562 3.179688 22.792969 C 0.0976562 19.191406 1.765625 11.75 7.828125 11.75 C 8.925781 11.75 10.300781 11.722656 11.824219 11.722656 C 11.824219 9.28125 11.839844 7.683594 11.839844 7.683594 C 11.839844 2.78125 18.09375 -0.273438 22.695312 3.476562 C 24.972656 1.464844 29.027344 1.238281 31.503906 3.015625 C 32.152344 3.46875 32.992188 4.476562 32.878906 4.394531 C 33.527344 5.324219 33.96875 6.496094 33.96875 7.914062 C 33.96875 8.960938 33.957031 10.285156 33.96875 11.726562 C 35.3125 11.734375 36.589844 11.726562 37.585938 11.726562 C 39 11.726562 40.175781 12.144531 41.105469 12.796875 C 41.023438 12.679688 42.03125 13.523438 42.484375 14.167969 C 44.261719 16.644531 44.035156 20.699219 42.019531 22.976562 C 45.773438 27.578125 42.71875 33.890625 37.816406 33.890625 C 37.816406 33.890625 36.277344 33.882812 33.957031 33.890625 Z M 29.726562 34.855469 C 28.394531 34.855469 26.878906 34.855469 25.4375 34.855469 C 25.429688 36.890625 25.4375 38.363281 25.4375 38.363281 C 25.4375 40.980469 29.726562 40.980469 29.726562 38.285156 C 29.726562 37.964844 29.738281 36.566406 29.726562 34.855469 Z M 20.339844 34.742188 C 18.914062 34.742188 17.378906 34.742188 16.058594 34.742188 C 16.046875 36.859375 16.058594 38.363281 16.058594 38.363281 C 16.058594 40.980469 20.339844 40.980469 20.339844 38.285156 C 20.339844 37.949219 20.34375 36.578125 20.339844 34.742188 Z M 11.027344 15.96875 L 7.324219 15.96875 C 4.628906 15.96875 4.628906 20.355469 7.25 20.355469 C 7.25 20.355469 8.84375 20.355469 11.011719 20.355469 C 11.011719 18.871094 11.027344 17.347656 11.027344 15.96875 Z M 10.988281 29.761719 C 10.984375 28.421875 10.976562 26.914062 10.976562 25.46875 C 9.125 25.46875 7.667969 25.46875 7.324219 25.46875 C 4.628906 25.46875 4.628906 29.761719 7.25 29.761719 C 7.25 29.761719 8.824219 29.757812 10.988281 29.761719 Z M 14.226562 29.730469 C 14.226562 27.132812 14.230469 24.46875 14.230469 22.789062 C 14.230469 21.105469 14.230469 18.53125 14.230469 15.933594 L 12.832031 15.933594 C 12.832031 19.570312 12.832031 23.554688 12.832031 26.238281 C 12.832031 27.417969 12.832031 28.632812 12.832031 29.761719 C 13.285156 29.761719 13.761719 29.730469 14.226562 29.730469 Z M 33.027344 29.722656 C 33.027344 28.570312 33.027344 27.375 33.027344 26.238281 C 33.027344 24.019531 33.019531 19.910156 33.027344 16.042969 C 32.578125 16.042969 32.058594 16.058594 31.589844 16.058594 C 31.597656 18.769531 31.589844 21.425781 31.589844 22.789062 C 31.589844 24.183594 31.613281 26.941406 31.613281 29.722656 C 32.058594 29.722656 32.597656 29.71875 33.027344 29.722656 Z M 33.019531 34.859375 C 32.59375 34.863281 32.058594 34.859375 31.605469 34.859375 C 31.605469 36.4375 31.605469 37.769531 31.605469 38.347656 C 31.605469 43.25 23.660156 43.25 23.660156 38.488281 C 23.660156 38.488281 23.660156 30.605469 23.660156 25.394531 C 23.269531 25.394531 23.007812 25.394531 22.824219 25.394531 C 22.6875 25.394531 22.445312 25.394531 22.191406 25.394531 C 22.191406 29.746094 22.191406 36.703125 22.191406 38.347656 C 22.191406 43.25 14.1875 43.25 14.1875 38.488281 C 14.1875 38.488281 14.1875 36.929688 14.1875 34.726562 C 13.789062 34.726562 13.238281 34.726562 12.863281 34.726562 C 12.863281 37.027344 12.863281 38.476562 12.863281 38.476562 C 12.890625 44.351562 20.546875 46.613281 22.929688 42.097656 C 25.1875 46.679688 33.019531 44.339844 33.019531 38.285156 C 33.019531 37.359375 33.019531 36.160156 33.019531 34.859375 Z M 25.035156 4.292969 C 27.300781 2.679688 31.542969 3.640625 31.542969 7.226562 C 31.542969 7.832031 31.558594 9.210938 31.566406 10.863281 C 32.074219 10.863281 32.589844 10.859375 33.082031 10.863281 C 33.085938 9.253906 33.085938 7.933594 33.082031 7.226562 C 33.050781 0.519531 24.40625 0.300781 22.839844 4.253906 L 22.652344 3.988281 C 20.519531 -0.46875 12.808594 1.363281 12.808594 7.039062 C 12.808594 7.039062 12.808594 8.59375 12.808594 10.855469 C 13.257812 10.855469 13.746094 10.855469 14.210938 10.855469 C 14.210938 8.703125 14.210938 7.089844 14.210938 7.089844 C 14.210938 2.328125 22.132812 2.328125 22.132812 7.226562 C 22.132812 8.875 22.15625 16.007812 22.167969 20.355469 C 22.433594 20.351562 22.652344 20.355469 22.824219 20.355469 C 23.039062 20.355469 23.308594 20.355469 23.671875 20.355469 C 23.671875 15.148438 23.640625 7.089844 23.640625 7.089844 C 23.640625 5.816406 24.207031 4.882812 25.035156 4.292969 M 20.300781 29.808594 C 20.296875 28.226562 20.34375 26.742188 20.34375 25.476562 C 19.128906 25.484375 17.613281 25.476562 16.074219 25.476562 C 16.074219 26.722656 16.078125 28.277344 16.074219 29.808594 C 17.554688 29.8125 19.109375 29.808594 20.300781 29.808594 Z M 20.296875 20.429688 C 20.285156 19.191406 20.316406 17.578125 20.308594 15.96875 C 19.0625 15.96875 17.554688 15.964844 15.960938 15.96875 C 15.964844 17.640625 15.945312 19.152344 15.957031 20.429688 C 17.507812 20.429688 19.0625 20.449219 20.296875 20.429688 Z M 20.335938 33.003906 C 20.332031 32.464844 20.335938 32.09375 20.335938 31.53125 C 15.125 31.53125 7.125 31.53125 7.125 31.53125 C 2.363281 31.53125 2.363281 23.625 7.261719 23.625 C 7.878906 23.625 9.292969 23.582031 11 23.582031 C 11 23.351562 11 22.738281 11 22.511719 C 11 22.289062 11 22.730469 11 22.511719 C 8.8125 22.511719 7.125 22.511719 7.125 22.511719 C 2.363281 22.511719 2.363281 14.210938 7.261719 14.210938 C 8.902344 14.210938 15.949219 14.171875 20.304688 14.171875 C 20.300781 13.695312 20.304688 13.199219 20.304688 12.738281 C 19.972656 12.738281 19.648438 12.738281 19.371094 12.738281 C 16.066406 12.738281 12.53125 12.738281 9.796875 12.738281 C 8.429688 12.738281 7.78125 12.40625 7.09375 12.40625 C 1.042969 12.40625 -0.371094 20.625 4.207031 22.886719 C -0.308594 25.269531 1.261719 32.980469 7.136719 33.003906 C 7.136719 33.003906 13.1875 33.003906 19.371094 33.003906 C 19.699219 33.003906 19.972656 33.003906 20.335938 33.003906 Z M 29.730469 16.03125 C 28.179688 16.023438 26.648438 16.03125 25.425781 16.03125 C 25.433594 17.585938 25.417969 19.09375 25.425781 20.324219 C 26.675781 20.324219 28.1875 20.316406 29.730469 20.324219 C 29.730469 19.128906 29.734375 17.5625 29.730469 16.03125 Z M 34.921875 16.058594 C 34.929688 17.449219 34.921875 18.945312 34.921875 20.367188 C 36.910156 20.382812 38.398438 20.367188 38.398438 20.367188 C 41.015625 20.367188 41.015625 16.058594 38.320312 16.058594 C 37.992188 16.058594 36.679688 16.066406 34.921875 16.058594 Z M 29.710938 29.722656 C 29.703125 28.226562 29.710938 26.675781 29.710938 25.472656 C 28.195312 25.472656 26.644531 25.476562 25.433594 25.472656 C 25.4375 26.710938 25.441406 28.203125 25.433594 29.722656 C 26.664062 29.726562 28.179688 29.71875 29.710938 29.722656 Z M 34.929688 29.769531 C 36.902344 29.78125 38.398438 29.769531 38.398438 29.769531 C 41.015625 29.769531 41.015625 25.484375 38.320312 25.484375 C 37.996094 25.484375 36.675781 25.484375 34.929688 25.484375 C 34.929688 26.902344 34.933594 28.386719 34.929688 29.769531 Z M 29.773438 23.589844 C 29.773438 23.261719 29.773438 22.578125 29.773438 22.414062 C 29.773438 22.289062 29.773438 22.640625 29.773438 22.414062 C 27.148438 22.414062 24.527344 22.414062 22.824219 22.414062 C 21.132812 22.414062 18.613281 22.414062 16.007812 22.414062 C 16.007812 22.695312 16.007812 22.234375 16.007812 22.414062 C 16.007812 22.625 16.003906 23.28125 16.007812 23.628906 C 18.730469 23.628906 21.453125 23.625 22.824219 23.625 C 24.222656 23.625 26.984375 23.582031 29.773438 23.589844 Z M 41.316406 20.765625 C 40.726562 21.59375 39.796875 22.128906 38.523438 22.128906 C 38.523438 22.128906 37.015625 22.128906 34.890625 22.128906 C 34.890625 22.390625 34.890625 22.59375 34.890625 22.851562 C 34.890625 23.144531 34.890625 23.402344 34.890625 23.695312 C 36.46875 23.699219 37.800781 23.667969 38.382812 23.667969 C 43.285156 23.667969 43.285156 31.59375 38.523438 31.59375 C 38.523438 31.59375 30.632812 31.59375 25.421875 31.59375 C 25.417969 31.984375 25.421875 32.558594 25.421875 32.9375 C 31.601562 32.933594 38.574219 32.9375 38.574219 32.9375 C 44.246094 32.9375 46.25 25.191406 41.792969 23.058594 L 41.65625 22.988281 C 45.605469 21.421875 45.09375 12.746094 38.382812 12.714844 C 36.492188 12.707031 30.472656 12.703125 25.382812 12.714844 C 25.382812 13.230469 25.378906 13.71875 25.382812 14.253906 C 29.738281 14.265625 36.75 14.253906 38.382812 14.253906 C 41.972656 14.253906 42.933594 18.496094 41.316406 20.765625 M 20.316406 10.890625 C 20.316406 9.054688 20.316406 7.632812 20.316406 7.289062 C 20.316406 4.597656 15.980469 4.597656 15.980469 7.214844 C 15.980469 7.214844 15.980469 8.691406 15.980469 10.890625 C 17.394531 10.898438 18.882812 10.878906 20.316406 10.890625 Z M 29.726562 10.871094 C 29.726562 9.050781 29.726562 7.628906 29.726562 7.289062 C 29.726562 4.597656 25.390625 4.597656 25.390625 7.214844 C 25.390625 7.214844 25.386719 8.769531 25.390625 10.871094 C 26.832031 10.871094 28.324219 10.863281 29.726562 10.871094 "/>
<g clip-path="url(#clip1)" clip-rule="nonzero">
<path style=" stroke:none;fill-rule:nonzero;fill:rgb(73.068237%,60.719299%,10.681152%);fill-opacity:1;" d="M 34.984375 34.640625 C 34.980469 36.160156 34.984375 37.613281 34.984375 38.71875 C 34.984375 45.261719 26.917969 47.066406 23.03125 43.738281 C 18.511719 47.316406 11.058594 45.300781 11.058594 38.972656 C 11.058594 38.972656 11.070312 37.25 11.058594 34.546875 C 8.351562 34.546875 6.527344 34.578125 6.527344 34.578125 C 0.199219 34.578125 -1.816406 27.175781 1.761719 22.65625 C -1.566406 18.769531 0.234375 10.738281 6.78125 10.738281 C 7.964844 10.738281 9.449219 10.707031 11.09375 10.707031 C 11.09375 8.074219 11.109375 6.34375 11.109375 6.34375 C 11.109375 1.054688 17.863281 -2.242188 22.832031 1.808594 C 25.289062 -0.367188 29.667969 -0.609375 32.339844 1.304688 C 33.035156 1.796875 33.949219 2.882812 33.824219 2.792969 C 34.527344 3.800781 34.996094 5.066406 34.996094 6.597656 C 34.996094 7.726562 34.988281 9.15625 34.996094 10.710938 C 36.453125 10.71875 37.832031 10.710938 38.90625 10.710938 C 40.433594 10.710938 41.699219 11.160156 42.703125 11.867188 C 42.617188 11.742188 43.703125 12.652344 44.195312 13.347656 C 46.109375 16.023438 45.867188 20.398438 43.691406 22.859375 C 47.742188 27.824219 44.445312 34.640625 39.15625 34.640625 C 39.15625 34.640625 37.492188 34.628906 34.984375 34.640625 Z M 33.058594 32.933594 L 38.570312 32.933594 C 44.246094 32.933594 45.21875 25.101562 40.765625 22.96875 C 44.71875 21.402344 45.09375 12.738281 38.382812 12.710938 C 37.433594 12.703125 33.082031 12.699219 33.082031 12.699219 L 33.082031 10.855469 C 33.082031 9.246094 33.082031 7.925781 33.082031 7.222656 C 33.050781 0.511719 24.390625 0.882812 22.820312 4.835938 C 20.6875 0.382812 12.804688 1.359375 12.804688 7.03125 C 12.804688 7.03125 12.808594 10.46875 12.804688 12.730469 L 12.800781 12.730469 C 10.660156 12.730469 8.726562 12.730469 7.324219 12.730469 C 1.273438 12.730469 0.109375 20.585938 4.6875 22.84375 C 0.171875 25.230469 1.261719 32.972656 7.136719 33 C 7.136719 33 6.675781 33 12.863281 33 L 12.863281 34.71875 C 12.863281 37.019531 12.863281 38.46875 12.863281 38.46875 C 12.890625 44.34375 20.5625 45.433594 22.949219 40.914062 C 25.207031 45.496094 33.015625 44.332031 33.015625 38.28125 C 33.015625 33.105469 33.015625 31.90625 33.015625 34.851562 L 33.015625 32.914062 L 33.058594 32.933594 "/>
</g>
<path style=" stroke:none;fill-rule:nonzero;fill:rgb(73.068237%,60.719299%,10.681152%);fill-opacity:1;" d="M 25.574219 22.851562 C 25.574219 24.324219 24.378906 25.523438 22.898438 25.523438 C 21.421875 25.523438 20.226562 24.324219 20.226562 22.851562 C 20.226562 21.371094 21.421875 20.175781 22.898438 20.175781 C 24.378906 20.175781 25.574219 21.371094 25.574219 22.851562 "/>
</g>
</svg>

<svg xmlns="http://www.w3.org/2000/svg" width="176pt" height="45.5pt" viewBox="0 0 176 45.5"><defs><clipPath id="a"><path d="M0 0h46v45.5H0Zm0 0"/></clipPath></defs><path d="M54.824 12.945H65.31c3.96 0 6.304.746 6.304 5.106 0 2.527-.508 4.18-3.14 4.605v.211c2.953.188 3.46 1.969 3.46 4.469 0 4.894-2.288 5.562-6.519 5.562h-10.59Zm5.324 7.98h3.829c1.863 0 2.312-.32 2.312-1.913 0-1.2-.184-1.653-1.672-1.703h-4.469Zm0 7.61h4.016c1.73 0 2.445-.398 2.445-2.023 0-1.649-.609-1.887-2.34-1.887h-4.12zM79.219 20.953h8.511v3.7H79.22v3.882h9.258v4.363H73.898V12.945H88.29v4.364h-9.07zM100.254 22.973c2.289 0 2.207-.852 2.207-3.11 0-1.785-.45-2.289-2.207-2.289h-4.121v5.399Zm-9.445-10.028h10.27c4.605.078 6.862 1.063 6.862 6.04 0 3.324 0 5.265-3.777 6.144v.21c2.184.083 3.594 1.278 3.594 3.54v4.02h-5.32v-2.794c.05-1.492-.586-2.503-2.184-2.503h-4.121v5.296h-5.324zM123.477 12.945V26.75c0 5.348-1.594 6.309-7.184 6.309-5.531 0-6.676-1.305-6.676-6.868v-1.648h5.055v1.648c0 1.653.183 2.239 1.621 2.239 1.648 0 1.863-.426 1.863-1.68V12.945zM130.719 29.465l-.989 3.433h-5.53l5.987-19.953h8.086l6.067 19.953h-5.43l-1.035-3.433Zm3.617-12.531h-.055l-2.422 8.648h4.95zM152.656 25.902v6.996h-5.32v-6.996l-7.078-12.957h6.094l3.562 7.688h.188l3.671-7.688h6.172zM162.379 29.465l-.984 3.433h-5.536l5.989-19.953h8.086L176 32.898h-5.426l-1.039-3.433Zm3.617-12.531h-.055l-2.418 8.648h4.95z" style="stroke:none;fill-rule:nonzero;fill:#a7811e;fill-opacity:1"/><path d="M33.957 33.89c-.008 1.407 0 2.758 0 3.782 0 6.058-7.473 7.73-11.074 4.648-4.188 3.313-11.09 1.446-11.09-4.418 0 0 .008-1.593 0-4.097-2.508 0-4.2.03-4.2.03-5.863 0-7.73-6.858-4.413-11.042C.098 19.191 1.766 11.75 7.828 11.75c1.098 0 2.473-.027 3.996-.027 0-2.442.016-4.04.016-4.04 0-4.902 6.254-7.956 10.855-4.206 2.278-2.012 6.332-2.239 8.809-.461.648.453 1.488 1.46 1.375 1.379a6.05 6.05 0 0 1 1.09 3.52c0 1.046-.012 2.37 0 3.812 1.343.007 2.62 0 3.617 0 1.414 0 2.59.418 3.52 1.07-.083-.117.925.726 1.378 1.371 1.778 2.477 1.551 6.531-.464 8.809 3.753 4.601.699 10.914-4.204 10.914 0 0-1.539-.008-3.859 0m-4.23.965h-4.29c-.007 2.036 0 3.508 0 3.508 0 2.617 4.29 2.617 4.29-.078 0-.32.011-1.719 0-3.43m-9.387-.113h-4.281c-.012 2.117 0 3.621 0 3.621 0 2.617 4.28 2.617 4.28-.078 0-.336.005-1.707 0-3.543M11.027 15.97H7.324c-2.695 0-2.695 4.386-.074 4.386h3.762c0-1.484.015-3.007.015-4.386m-.039 13.793c-.004-1.34-.011-2.848-.011-4.293H7.324c-2.695 0-2.695 4.293-.074 4.293 0 0 1.574-.004 3.738 0m3.239-.032c0-2.597.003-5.261.003-6.94v-6.856h-1.398v13.828c.453 0 .93-.032 1.395-.032m18.8-.007v-3.485c0-2.218-.007-6.328 0-10.195-.449 0-.968.016-1.437.016.008 2.71 0 5.367 0 6.73 0 1.395.023 4.152.023 6.934.446 0 .985-.004 1.414 0m-.007 5.136c-.426.004-.961 0-1.415 0v3.489c0 4.902-7.945 4.902-7.945.14V25.395h-1.469v12.953c0 4.902-8.003 4.902-8.003.14v-3.761h-1.325v3.75c.028 5.875 7.684 8.136 10.067 3.62 2.258 4.583 10.09 2.243 10.09-3.812zM25.035 4.293c2.266-1.613 6.508-.652 6.508 2.934 0 .605.016 1.984.023 3.636.508 0 1.024-.004 1.516 0 .004-1.61.004-2.93 0-3.636C33.051.52 24.406.3 22.84 4.254l-.188-.266C20.52-.469 12.81 1.363 12.81 7.04v3.816h1.402V7.09c0-4.762 7.922-4.762 7.922.137 0 1.648.023 8.78.035 13.128.266-.003.484 0 .656 0h.848c0-5.207-.031-13.265-.031-13.265 0-1.274.566-2.207 1.394-2.797m-4.734 25.516c-.004-1.582.043-3.067.043-4.332-1.215.007-2.73 0-4.27 0 0 1.246.004 2.8 0 4.332 1.48.003 3.035 0 4.227 0m-.004-9.38c-.012-1.238.02-2.85.012-4.46-1.247 0-2.754-.004-4.348 0 .004 1.672-.016 3.183-.004 4.46 1.55 0 3.105.02 4.34 0m.039 12.575c-.004-.54 0-.91 0-1.473H7.125c-4.762 0-4.762-7.906.137-7.906.617 0 2.031-.043 3.738-.043v-1.07c0-.223 0 .218 0 0H7.125c-4.762 0-4.762-8.301.137-8.301 1.64 0 8.687-.04 13.043-.04-.004-.476 0-.972 0-1.433H9.797c-1.367 0-2.016-.332-2.703-.332-6.051 0-7.465 8.219-2.887 10.48-4.516 2.384-2.945 10.094 2.93 10.118h13.199M29.73 16.03c-1.55-.008-3.082 0-4.304 0 .008 1.555-.008 3.063 0 4.293 1.25 0 2.762-.008 4.304 0 0-1.195.004-2.762 0-4.293m5.192.028c.008 1.39 0 2.886 0 4.308 1.988.016 3.476 0 3.476 0 2.618 0 2.618-4.308-.078-4.308-.328 0-1.64.007-3.398 0M29.71 29.723c-.008-1.496 0-3.047 0-4.25-1.516 0-3.066.004-4.277 0 .003 1.238.007 2.73 0 4.25 1.23.004 2.746-.004 4.277 0m5.219.047c1.972.011 3.468 0 3.468 0 2.618 0 2.618-4.286-.078-4.286h-3.39c0 1.418.004 2.903 0 4.286m-5.157-6.18v-1.176c0-.125 0 .227 0 0H16.008c0 .281 0-.18 0 0 0 .211-.004.867 0 1.215 2.722 0 5.445-.004 6.816-.004 1.399 0 4.16-.043 6.95-.035m11.543-2.824c-.59.828-1.52 1.363-2.793 1.363h-3.632v1.566c1.578.004 2.91-.027 3.492-.027 4.902 0 4.902 7.926.14 7.926H25.422c-.004.39 0 .965 0 1.343 6.18-.003 13.152 0 13.152 0 5.672 0 7.676-7.746 3.219-9.878l-.137-.07c3.95-1.567 3.438-10.243-3.273-10.274-1.89-.008-7.91-.012-13 0 0 .515-.004 1.004 0 1.539 4.355.012 11.367 0 13 0 3.59 0 4.55 4.242 2.933 6.512m-21-9.875V7.289c0-2.691-4.336-2.691-4.336-.074v3.676c1.415.007 2.903-.012 4.336 0m9.41-.02V7.29c0-2.691-4.335-2.691-4.335-.074 0 0-.004 1.555 0 3.656 1.441 0 2.933-.008 4.336 0" style="stroke:none;fill-rule:nonzero;fill:#2a59ad;fill-opacity:1"/><g clip-path="url(#a)"><path d="M34.984 34.64c-.004 1.52 0 2.973 0 4.079 0 6.543-8.066 8.347-11.953 5.02-4.52 3.577-11.972 1.562-11.972-4.766 0 0 .011-1.723 0-4.426-2.707 0-4.532.031-4.532.031-6.328 0-8.343-7.402-4.765-11.922-3.328-3.886-1.528-11.918 5.02-11.918 1.183 0 2.667-.031 4.312-.031 0-2.633.015-4.363.015-4.363 0-5.29 6.754-8.586 11.723-4.535 2.457-2.176 6.836-2.418 9.508-.504.695.492 1.61 1.578 1.484 1.488.703 1.008 1.172 2.273 1.172 3.805 0 1.129-.008 2.558 0 4.113 1.457.008 2.836 0 3.91 0 1.528 0 2.793.45 3.797 1.156-.086-.125 1 .785 1.492 1.48 1.914 2.676 1.672 7.051-.504 9.512 4.051 4.965.754 11.782-4.535 11.782 0 0-1.664-.012-4.172 0m-1.925-1.706h5.511c5.676 0 6.649-7.832 2.196-9.965 3.953-1.567 4.328-10.23-2.383-10.258-.95-.008-5.301-.012-5.301-.012V7.223C33.051.512 24.391.883 22.82 4.836 20.687.383 12.805 1.359 12.805 7.03c0 0 .004 3.438 0 5.7H7.324c-6.05 0-7.215 7.855-2.636 10.113C.172 25.23 1.261 32.973 7.137 33h5.726v5.469c.028 5.875 7.7 6.965 10.086 2.445 2.258 4.582 10.067 3.418 10.067-2.633v-5.367z" style="stroke:none;fill-rule:nonzero;fill:#ba9b1b;fill-opacity:1"/></g><path d="M25.574 22.852a2.674 2.674 0 1 1-5.348-.005 2.674 2.674 0 0 1 5.348.005" style="stroke:none;fill-rule:nonzero;fill:#ba9b1b;fill-opacity:1"/></svg>
